assets/shop-tab/Asset/Pantaloons.svg

<svg width="93" height="52" viewBox="0 0 93 52" fill="none" xmlns="http://www.w3.org/2000/svg">
<path fill-rule="evenodd" clip-rule="evenodd" d="M0 8C0 3.58172 3.58172 0 8 0H85C89.4183 0 93 3.58172 93 8V21.1C90.7178 21.5633 89 23.581 89 26C89 28.419 90.7178 30.4367 93 30.9V44C93 48.4183 89.4183 52 85 52H8C3.58172 52 0 48.4183 0 44V30.9C2.28224 30.4367 4 28.419 4 26C4 23.581 2.28224 21.5633 0 21.1V8Z" fill="#4DADB3"/>
<path fill-rule="evenodd" clip-rule="evenodd" d="M20.7447 18.91C20.7447 20.5624 21.7544 22.1431 23.5778 22.1431C25.3833 22.1431 26.3757 20.5981 26.3757 18.91C26.3757 16.7368 24.8002 15.821 23.5605 15.821C22.1257 15.821 20.7447 16.9169 20.7447 18.91ZM26.3395 15.2381H27.0474V22.6279H26.3395V21.3173C25.6133 22.4489 24.4626 22.8263 23.5243 22.8263C21.6302 22.8263 20.0013 21.3715 20.0013 18.965C20.0013 16.7022 21.4175 15.1396 23.5243 15.1396C24.6571 15.1396 25.6495 15.5888 26.3395 16.5762V15.2381Z" fill="white"/>
<path fill-rule="evenodd" clip-rule="evenodd" d="M20.7447 18.91C20.7447 20.5624 21.7544 22.1431 23.5778 22.1431C25.3833 22.1431 26.3757 20.5981 26.3757 18.91C26.3757 16.7368 24.8002 15.821 23.5605 15.821C22.1257 15.821 20.7447 16.9169 20.7447 18.91ZM26.3395 15.2381H27.0474V22.6279H26.3395V21.3173C25.6133 22.4489 24.4626 22.8263 23.5243 22.8263C21.6302 22.8263 20.0013 21.3715 20.0013 18.965C20.0013 16.7022 21.4175 15.1396 23.5243 15.1396C24.6571 15.1396 25.6495 15.5888 26.3395 16.5762V15.2381Z" stroke="white" stroke-width="0.194088"/>
<path fill-rule="evenodd" clip-rule="evenodd" d="M41.8822 18.91C41.8822 20.5624 42.8919 22.1431 44.7153 22.1431C46.5208 22.1431 47.5132 20.5981 47.5132 18.91C47.5132 16.7368 45.9377 15.821 44.6981 15.821C43.2639 15.821 41.8822 16.9169 41.8822 18.91ZM47.4777 15.2381H48.1856V22.6279H47.4777V21.3173C46.7515 22.4489 45.6008 22.8263 44.6625 22.8263C42.7684 22.8263 41.1395 21.3715 41.1395 18.965C41.1395 16.7022 42.5557 15.1396 44.6625 15.1396C45.7953 15.1396 46.7877 15.5888 47.4777 16.5762V15.2381Z" fill="white"/>
<path fill-rule="evenodd" clip-rule="evenodd" d="M41.8822 18.91C41.8822 20.5624 42.8919 22.1431 44.7153 22.1431C46.5208 22.1431 47.5132 20.5981 47.5132 18.91C47.5132 16.7368 45.9377 15.821 44.6981 15.821C43.2639 15.821 41.8822 16.9169 41.8822 18.91ZM47.4777 15.2381H48.1856V22.6279H47.4777V21.3173C46.7515 22.4489 45.6008 22.8263 44.6625 22.8263C42.7684 22.8263 41.1395 21.3715 41.1395 18.965C41.1395 16.7022 42.5557 15.1396 44.6625 15.1396C45.7953 15.1396 46.7877 15.5888 47.4777 16.5762V15.2381Z" stroke="white" stroke-width="0.194088"/>
<path fill-rule="evenodd" clip-rule="evenodd" d="M38.8048 15.8562V22.506H38.0243V15.8562H35.3745V15.1396H41.4598V15.8555H38.8048V15.8562Z" fill="white"/>
<path fill-rule="evenodd" clip-rule="evenodd" d="M38.8048 15.8562V22.506H38.0243V15.8562H35.3745V15.1396H41.4598V15.8555H38.8048V15.8562Z" stroke="white" stroke-width="0.194088"/>
<path fill-rule="evenodd" clip-rule="evenodd" d="M35.3746 22.506H34.6311V18.8991C34.6311 16.9118 33.2505 15.8208 31.8164 15.8208C30.5767 15.8208 29.0012 16.7334 29.0012 18.8991L29.0368 22.506H28.3285V15.1396H29.0368V16.5713C29.7274 15.5872 30.7188 15.1396 31.8515 15.1396C33.9584 15.1396 35.3746 16.6967 35.3746 18.9521V22.506Z" fill="white"/>
<path fill-rule="evenodd" clip-rule="evenodd" d="M35.3746 22.506H34.6311V18.8991C34.6311 16.9118 33.2505 15.8208 31.8164 15.8208C30.5767 15.8208 29.0012 16.7334 29.0012 18.8991L29.0368 22.506H28.3285V15.1396H29.0368V16.5713C29.7274 15.5872 30.7188 15.1396 31.8515 15.1396C33.9584 15.1396 35.3746 16.6967 35.3746 18.9521V22.506Z" stroke="white" stroke-width="0.194088"/>
<path fill-rule="evenodd" clip-rule="evenodd" d="M74.4483 22.506H73.7049V18.8991C73.7049 16.9118 72.3242 15.8208 70.8901 15.8208C69.6505 15.8208 68.075 16.7334 68.075 18.8991L68.1105 22.506H67.4023V15.1396H68.1105V16.5713C68.8012 15.5872 69.7926 15.1396 70.9253 15.1396C73.0322 15.1396 74.4483 16.6967 74.4483 18.9521V22.506Z" fill="white"/>
<path fill-rule="evenodd" clip-rule="evenodd" d="M74.4483 22.506H73.7049V18.8991C73.7049 16.9118 72.3242 15.8208 70.8901 15.8208C69.6505 15.8208 68.075 16.7334 68.075 18.8991L68.1105 22.506H67.4023V15.1396H68.1105V16.5713C68.8012 15.5872 69.7926 15.1396 70.9253 15.1396C73.0322 15.1396 74.4483 16.6967 74.4483 18.9521V22.506Z" stroke="white" stroke-width="0.194088"/>
<path fill-rule="evenodd" clip-rule="evenodd" d="M78.8755 16.6492C78.6296 16.0742 78.1392 15.8227 77.6308 15.8227C76.8246 15.8227 76.4213 16.4509 76.4213 16.9902C76.4213 17.7083 76.9824 17.9416 77.6837 18.2291C78.4029 18.5162 79.0691 18.7138 79.5246 19.3063C79.8224 19.6837 79.893 20.0786 79.893 20.4917C79.893 22.1617 78.6655 22.8263 77.5608 22.8263C76.3684 22.8263 75.3867 22.1082 75.0889 20.8869L75.7729 20.6711C76.0187 21.641 76.7727 22.1432 77.5618 22.1432C78.4736 22.1432 79.1568 21.4783 79.1568 20.527C79.1568 19.7012 78.6484 19.3955 77.5618 18.9464C76.8427 18.6414 76.3172 18.4074 76.0017 17.9765C75.8436 17.7607 75.6858 17.4557 75.6858 17.0252C75.6858 15.9119 76.5101 15.1396 77.5967 15.1396C78.4387 15.1396 79.1398 15.5345 79.4724 16.325L78.8755 16.6492Z" fill="white"/>
<path fill-rule="evenodd" clip-rule="evenodd" d="M78.8755 16.6492C78.6296 16.0742 78.1392 15.8227 77.6308 15.8227C76.8246 15.8227 76.4213 16.4509 76.4213 16.9902C76.4213 17.7083 76.9824 17.9416 77.6837 18.2291C78.4029 18.5162 79.0691 18.7138 79.5246 19.3063C79.8224 19.6837 79.893 20.0786 79.893 20.4917C79.893 22.1617 78.6655 22.8263 77.5608 22.8263C76.3684 22.8263 75.3867 22.1082 75.0889 20.8869L75.7729 20.6711C76.0187 21.641 76.7727 22.1432 77.5618 22.1432C78.4736 22.1432 79.1568 21.4783 79.1568 20.527C79.1568 19.7012 78.6484 19.3955 77.5618 18.9464C76.8427 18.6414 76.3172 18.4074 76.0017 17.9765C75.8436 17.7607 75.6858 17.4557 75.6858 17.0252C75.6858 15.9119 76.5101 15.1396 77.5967 15.1396C78.4387 15.1396 79.1398 15.5345 79.4724 16.325L78.8755 16.6492Z" stroke="white" stroke-width="0.194088"/>
<path fill-rule="evenodd" clip-rule="evenodd" d="M50.2737 15.1396V21.7895H54.2709V22.506H49.4667V15.1396H50.2737Z" fill="white"/>
<path fill-rule="evenodd" clip-rule="evenodd" d="M50.2737 15.1396V21.7895H54.2709V22.506H49.4667V15.1396H50.2737Z" stroke="white" stroke-width="0.194088"/>
<path fill-rule="evenodd" clip-rule="evenodd" d="M18.2252 17.8899C18.2252 19.3938 17.1787 20.1169 15.6359 20.1169H14.0752V15.856H15.6426C17.1146 15.856 18.1347 16.5148 18.2252 17.8818V17.8899ZM19.0406 17.8594C18.9304 16.0348 17.5619 15.1396 15.6071 15.1396H13.3045H13.2954L13.2756 22.506H14.0555L14.0752 20.8329H15.6007C17.6401 20.8329 19.0406 19.8588 19.0406 17.8715V17.8594Z" fill="white"/>
<path fill-rule="evenodd" clip-rule="evenodd" d="M18.2252 17.8899C18.2252 19.3938 17.1787 20.1169 15.6359 20.1169H14.0752V15.856H15.6426C17.1146 15.856 18.1347 16.5148 18.2252 17.8818V17.8899ZM19.0406 17.8594C18.9304 16.0348 17.5619 15.1396 15.6071 15.1396H13.3045H13.2954L13.2756 22.506H14.0555L14.0752 20.8329H15.6007C17.6401 20.8329 19.0406 19.8588 19.0406 17.8715V17.8594Z" stroke="white" stroke-width="0.194088"/>
<path fill-rule="evenodd" clip-rule="evenodd" d="M57.8227 22.1437C56.0499 22.1437 54.7107 20.7614 54.7107 18.9826C54.7107 17.2045 56.0499 15.8222 57.8227 15.8222C58.612 15.8222 59.3156 16.0965 59.8529 16.558C59.8493 16.5623 59.846 16.5666 59.8428 16.5705C59.7208 16.7234 59.6107 16.8859 59.5139 17.0577C59.1972 17.6185 59.0179 18.2743 59.0179 18.9826C59.0179 19.6916 59.1972 20.3467 59.5149 20.9082C59.6333 20.8014 59.741 20.6828 59.8367 20.5542C59.9065 20.461 59.9706 20.361 60.0274 20.2574C59.8662 19.8702 59.778 19.4391 59.778 18.9826C59.778 17.2045 61.1172 15.8222 62.8907 15.8222C64.6635 15.8222 66.0027 17.2045 66.0027 18.9826C66.0027 20.7603 64.6635 22.1437 62.8907 22.1437C62.1008 22.1437 61.3972 21.869 60.8599 21.4079C60.9725 21.2686 61.0751 21.1211 61.1658 20.965C61.5044 20.391 61.6955 19.7152 61.6955 18.9815C61.6955 18.2482 61.5037 17.5728 61.1658 16.9984C60.9631 17.1799 60.79 17.3924 60.654 17.6317C60.8354 18.0389 60.9354 18.4954 60.9354 18.9808C60.9354 19.4673 60.8339 19.9227 60.654 20.3306C60.4629 20.7646 59.6596 22.1437 57.8227 22.1437ZM62.89 15.1396C61.9082 15.1396 61.0279 15.4761 60.3564 16.0419C59.6837 15.4754 58.8045 15.1396 57.8227 15.1396C55.6335 15.1396 53.9507 16.8098 53.9507 18.9826C53.9507 21.155 55.6335 22.8263 57.8227 22.8263C58.8045 22.8263 59.6837 22.4898 60.3564 21.9233C61.0279 22.4898 61.9082 22.8263 62.89 22.8263C65.0789 22.8263 66.7617 21.1557 66.7617 18.9826C66.7628 16.8091 65.0799 15.1396 62.89 15.1396Z" fill="white"/>
<path fill-rule="evenodd" clip-rule="evenodd" d="M57.8227 22.1437C56.0499 22.1437 54.7107 20.7614 54.7107 18.9826C54.7107 17.2045 56.0499 15.8222 57.8227 15.8222C58.612 15.8222 59.3156 16.0965 59.8529 16.558C59.8493 16.5623 59.846 16.5666 59.8428 16.5705C59.7208 16.7234 59.6107 16.8859 59.5139 17.0577C59.1972 17.6185 59.0179 18.2743 59.0179 18.9826C59.0179 19.6916 59.1972 20.3467 59.5149 20.9082C59.6333 20.8014 59.741 20.6828 59.8367 20.5542C59.9065 20.461 59.9706 20.361 60.0274 20.2574C59.8662 19.8702 59.778 19.4391 59.778 18.9826C59.778 17.2045 61.1172 15.8222 62.8907 15.8222C64.6635 15.8222 66.0027 17.2045 66.0027 18.9826C66.0027 20.7603 64.6635 22.1437 62.8907 22.1437C62.1008 22.1437 61.3972 21.869 60.8599 21.4079C60.9725 21.2686 61.0751 21.1211 61.1658 20.965C61.5044 20.391 61.6955 19.7152 61.6955 18.9815C61.6955 18.2482 61.5037 17.5728 61.1658 16.9984C60.9631 17.1799 60.79 17.3924 60.654 17.6317C60.8354 18.0389 60.9354 18.4954 60.9354 18.9808C60.9354 19.4673 60.8339 19.9227 60.654 20.3306C60.4629 20.7646 59.6596 22.1437 57.8227 22.1437ZM62.89 15.1396C61.9082 15.1396 61.0279 15.4761 60.3564 16.0419C59.6837 15.4754 58.8045 15.1396 57.8227 15.1396C55.6335 15.1396 53.9507 16.8098 53.9507 18.9826C53.9507 21.155 55.6335 22.8263 57.8227 22.8263C58.8045 22.8263 59.6837 22.4898 60.3564 21.9233C61.0279 22.4898 61.9082 22.8263 62.89 22.8263C65.0789 22.8263 66.7617 21.1557 66.7617 18.9826C66.7628 16.8091 65.0799 15.1396 62.89 15.1396Z" stroke="white" stroke-width="0.194088"/>
<path d="M10 36C10 32.6863 12.6863 30 16 30H77C80.3137 30 83 32.6863 83 36V52H10V36Z" fill="url(#paint0_linear_634_1327)"/>
<path d="M32.0924 37.7273V45H30.5548V39.1868H30.5122L28.8467 40.2308V38.8672L30.6471 37.7273H32.0924ZM37.8018 43.6364V43.2528C37.8018 42.9616 37.8633 42.6941 37.9864 42.4503C38.1119 42.2041 38.293 42.0076 38.5297 41.8608C38.7689 41.7116 39.06 41.6371 39.4033 41.6371C39.7513 41.6371 40.0437 41.7105 40.2805 41.8572C40.5196 42.004 40.6995 42.2005 40.8202 42.4467C40.9433 42.6906 41.0049 42.9593 41.0049 43.2528V43.6364C41.0049 43.9276 40.9433 44.1963 40.8202 44.4425C40.6971 44.6863 40.516 44.8816 40.2769 45.0284C40.0378 45.1776 39.7466 45.2521 39.4033 45.2521C39.0553 45.2521 38.7629 45.1776 38.5262 45.0284C38.2894 44.8816 38.1095 44.6863 37.9864 44.4425C37.8633 44.1963 37.8018 43.9276 37.8018 43.6364ZM38.8351 43.2528V43.6364C38.8351 43.8045 38.8754 43.9631 38.9559 44.1122C39.0387 44.2614 39.1879 44.3359 39.4033 44.3359C39.6188 44.3359 39.7655 44.2625 39.8437 44.1158C39.9242 43.969 39.9644 43.8092 39.9644 43.6364V43.2528C39.9644 43.08 39.9265 42.919 39.8508 42.7699C39.775 42.6207 39.6259 42.5462 39.4033 42.5462C39.1903 42.5462 39.0423 42.6207 38.9594 42.7699C38.8766 42.919 38.8351 43.08 38.8351 43.2528ZM34.0695 39.4744V39.0909C34.0695 38.7973 34.1323 38.5286 34.2577 38.2848C34.3832 38.0386 34.5643 37.8421 34.801 37.6953C35.0402 37.5485 35.329 37.4751 35.6675 37.4751C36.0179 37.4751 36.3115 37.5485 36.5482 37.6953C36.7849 37.8421 36.9649 38.0386 37.088 38.2848C37.2111 38.5286 37.2726 38.7973 37.2726 39.0909V39.4744C37.2726 39.768 37.2099 40.0367 37.0844 40.2805C36.9613 40.5244 36.7802 40.7197 36.5411 40.8665C36.3044 41.0109 36.0132 41.0831 35.6675 41.0831C35.3219 41.0831 35.0295 41.0097 34.7904 40.8629C34.5537 40.7138 34.3737 40.5185 34.2506 40.277C34.1299 40.0331 34.0695 39.7656 34.0695 39.4744ZM35.11 39.0909V39.4744C35.11 39.6473 35.1502 39.8071 35.2307 39.9538C35.3136 40.1006 35.4592 40.174 35.6675 40.174C35.8853 40.174 36.0333 40.1006 36.1114 39.9538C36.1919 39.8071 36.2322 39.6473 36.2322 39.4744V39.0909C36.2322 38.9181 36.1943 38.7571 36.1185 38.608C36.0428 38.4588 35.8924 38.3842 35.6675 38.3842C35.4568 38.3842 35.3112 38.46 35.2307 38.6115C35.1502 38.763 35.11 38.9228 35.11 39.0909ZM34.5383 45L39.5383 37.7273H40.4687L35.4687 45H34.5383ZM51.455 41.3636C51.455 42.1567 51.3047 42.8314 51.004 43.3878C50.7057 43.9441 50.2985 44.3691 49.7824 44.6626C49.2687 44.9538 48.691 45.0994 48.0494 45.0994C47.4031 45.0994 46.8231 44.9527 46.3094 44.6591C45.7957 44.3655 45.3896 43.9406 45.0914 43.3842C44.7931 42.8279 44.6439 42.1544 44.6439 41.3636C44.6439 40.5705 44.7931 39.8958 45.0914 39.3395C45.3896 38.7831 45.7957 38.3594 46.3094 38.0682C46.8231 37.7746 47.4031 37.6278 48.0494 37.6278C48.691 37.6278 49.2687 37.7746 49.7824 38.0682C50.2985 38.3594 50.7057 38.7831 51.004 39.3395C51.3047 39.8958 51.455 40.5705 51.455 41.3636ZM49.896 41.3636C49.896 40.8499 49.8191 40.4167 49.6652 40.0639C49.5137 39.7112 49.2994 39.4437 49.0225 39.2614C48.7455 39.0791 48.4211 38.9879 48.0494 38.9879C47.6778 38.9879 47.3534 39.0791 47.0764 39.2614C46.7994 39.4437 46.584 39.7112 46.4301 40.0639C46.2786 40.4167 46.2029 40.8499 46.2029 41.3636C46.2029 41.8774 46.2786 42.3106 46.4301 42.6634C46.584 43.0161 46.7994 43.2836 47.0764 43.4659C47.3534 43.6482 47.6778 43.7393 48.0494 43.7393C48.4211 43.7393 48.7455 43.6482 49.0225 43.4659C49.2994 43.2836 49.5137 43.0161 49.6652 42.6634C49.8191 42.3106 49.896 41.8774 49.896 41.3636ZM52.594 45V37.7273H57.4094V38.995H54.1317V40.728H57.0898V41.9957H54.1317V45H52.594ZM58.4436 45V37.7273H63.259V38.995H59.9813V40.728H62.9394V41.9957H59.9813V45H58.4436Z" fill="white"/>
<defs>
<linearGradient id="paint0_linear_634_1327" x1="49.9762" y1="30" x2="49.9762" y2="59.3333" gradientUnits="userSpaceOnUse">
<stop stop-color="#388084"/>
<stop offset="1" stop-color="#398085" stop-opacity="0"/>
</linearGradient>
</defs>
</svg>

<svg xmlns="http://www.w3.org/2000/svg" width="93" height="52" fill="none" viewBox="0 0 93 52"><path fill="#4dadb3" fill-rule="evenodd" d="M0 8a8 8 0 0 1 8-8h77a8 8 0 0 1 8 8v13.1a5.002 5.002 0 0 0 0 9.8V44a8 8 0 0 1-8 8H8a8 8 0 0 1-8-8V30.9a5.002 5.002 0 0 0 0-9.8z" clip-rule="evenodd"/><path fill="#fff" fill-rule="evenodd" d="M20.745 18.91c0 1.652 1.01 3.233 2.833 3.233 1.805 0 2.798-1.545 2.798-3.233 0-2.173-1.576-3.089-2.815-3.089-1.435 0-2.816 1.096-2.816 3.089m5.595-3.672h.707v7.39h-.707v-1.31c-.727 1.13-1.877 1.508-2.816 1.508-1.894 0-3.523-1.454-3.523-3.861 0-2.263 1.416-3.825 3.523-3.825 1.133 0 2.125.449 2.816 1.436z" clip-rule="evenodd"/><path stroke="#fff" stroke-width=".194" d="M20.745 18.91c0 1.652 1.01 3.233 2.833 3.233 1.805 0 2.798-1.545 2.798-3.233 0-2.173-1.576-3.089-2.815-3.089-1.435 0-2.816 1.096-2.816 3.089Zm5.595-3.672h.707v7.39h-.707v-1.31c-.727 1.13-1.877 1.508-2.816 1.508-1.894 0-3.523-1.454-3.523-3.861 0-2.263 1.416-3.825 3.523-3.825 1.133 0 2.125.449 2.816 1.436z" clip-rule="evenodd"/><path fill="#fff" fill-rule="evenodd" d="M41.882 18.91c0 1.652 1.01 3.233 2.833 3.233 1.806 0 2.798-1.545 2.798-3.233 0-2.173-1.575-3.089-2.815-3.089-1.434 0-2.816 1.096-2.816 3.089m5.596-3.672h.708v7.39h-.708v-1.31c-.727 1.13-1.877 1.508-2.815 1.508-1.895 0-3.523-1.454-3.523-3.861 0-2.263 1.416-3.825 3.523-3.825 1.132 0 2.125.449 2.815 1.436z" clip-rule="evenodd"/><path stroke="#fff" stroke-width=".194" d="M41.882 18.91c0 1.652 1.01 3.233 2.833 3.233 1.806 0 2.798-1.545 2.798-3.233 0-2.173-1.575-3.089-2.815-3.089-1.434 0-2.816 1.096-2.816 3.089Zm5.596-3.672h.708v7.39h-.708v-1.31c-.727 1.13-1.877 1.508-2.815 1.508-1.895 0-3.523-1.454-3.523-3.861 0-2.263 1.416-3.825 3.523-3.825 1.132 0 2.125.449 2.815 1.436z" clip-rule="evenodd"/><path fill="#fff" fill-rule="evenodd" d="M38.805 15.856v6.65h-.78v-6.65h-2.65v-.716h6.085v.715z" clip-rule="evenodd"/><path stroke="#fff" stroke-width=".194" d="M38.805 15.856v6.65h-.78v-6.65h-2.65v-.716h6.085v.715z" clip-rule="evenodd"/><path fill="#fff" fill-rule="evenodd" d="M35.375 22.506h-.744v-3.607c0-1.987-1.38-3.078-2.815-3.078-1.24 0-2.815.912-2.815 3.078l.036 3.607h-.709V15.14h.709v1.431c.69-.984 1.682-1.431 2.815-1.431 2.106 0 3.523 1.557 3.523 3.812z" clip-rule="evenodd"/><path stroke="#fff" stroke-width=".194" d="M35.375 22.506h-.744v-3.607c0-1.987-1.38-3.078-2.815-3.078-1.24 0-2.815.912-2.815 3.078l.036 3.607h-.709V15.14h.709v1.431c.69-.984 1.682-1.431 2.815-1.431 2.106 0 3.523 1.557 3.523 3.812z" clip-rule="evenodd"/><path fill="#fff" fill-rule="evenodd" d="M74.448 22.506h-.743v-3.607c0-1.987-1.38-3.078-2.815-3.078-1.24 0-2.815.912-2.815 3.078l.035 3.607h-.708V15.14h.709v1.431c.69-.984 1.682-1.431 2.814-1.431 2.107 0 3.523 1.557 3.523 3.812z" clip-rule="evenodd"/><path stroke="#fff" stroke-width=".194" d="M74.448 22.506h-.743v-3.607c0-1.987-1.38-3.078-2.815-3.078-1.24 0-2.815.912-2.815 3.078l.035 3.607h-.708V15.14h.709v1.431c.69-.984 1.682-1.431 2.814-1.431 2.107 0 3.523 1.557 3.523 3.812z" clip-rule="evenodd"/><path fill="#fff" fill-rule="evenodd" d="M78.876 16.65a1.31 1.31 0 0 0-1.245-.827c-.806 0-1.21.628-1.21 1.167 0 .718.561.952 1.263 1.24.719.286 1.385.484 1.84 1.076.298.378.369.773.369 1.186 0 1.67-1.228 2.334-2.332 2.334-1.193 0-2.174-.718-2.472-1.94l.684-.215c.246.97 1 1.472 1.789 1.472.912 0 1.595-.665 1.595-1.616 0-.826-.509-1.132-1.595-1.58-.72-.306-1.245-.54-1.56-.97a1.56 1.56 0 0 1-.316-.952c0-1.113.824-1.885 1.91-1.885.843 0 1.544.394 1.876 1.185z" clip-rule="evenodd"/><path stroke="#fff" stroke-width=".194" d="M78.876 16.65a1.31 1.31 0 0 0-1.245-.827c-.806 0-1.21.628-1.21 1.167 0 .718.561.952 1.263 1.24.719.286 1.385.484 1.84 1.076.298.378.369.773.369 1.186 0 1.67-1.228 2.334-2.332 2.334-1.193 0-2.174-.718-2.472-1.94l.684-.215c.246.97 1 1.472 1.789 1.472.912 0 1.595-.665 1.595-1.616 0-.826-.509-1.132-1.595-1.58-.72-.306-1.245-.54-1.56-.97a1.56 1.56 0 0 1-.316-.952c0-1.113.824-1.885 1.91-1.885.843 0 1.544.394 1.876 1.185z" clip-rule="evenodd"/><path fill="#fff" fill-rule="evenodd" d="M50.274 15.14v6.65h3.997v.716h-4.804V15.14z" clip-rule="evenodd"/><path stroke="#fff" stroke-width=".194" d="M50.274 15.14v6.65h3.997v.716h-4.804V15.14z" clip-rule="evenodd"/><path fill="#fff" fill-rule="evenodd" d="M18.225 17.89c0 1.504-1.046 2.227-2.59 2.227h-1.56v-4.261h1.568c1.472 0 2.492.659 2.582 2.026zm.816-.03c-.11-1.825-1.48-2.72-3.434-2.72h-2.312l-.02 7.366h.78l.02-1.673h1.526c2.04 0 3.44-.974 3.44-2.961z" clip-rule="evenodd"/><path stroke="#fff" stroke-width=".194" d="M18.225 17.89c0 1.504-1.046 2.227-2.59 2.227h-1.56v-4.261h1.568c1.472 0 2.492.659 2.582 2.026zm.816-.03c-.11-1.825-1.48-2.72-3.434-2.72h-2.312l-.02 7.366h.78l.02-1.673h1.526c2.04 0 3.44-.974 3.44-2.961z" clip-rule="evenodd"/><path fill="#fff" fill-rule="evenodd" d="M57.823 22.144c-1.773 0-3.112-1.383-3.112-3.161s1.339-3.16 3.112-3.16c.789 0 1.493.273 2.03.735l-.01.012a4 4 0 0 0-.33.488 3.9 3.9 0 0 0-.495 1.925c0 .709.18 1.364.497 1.925a2.4 2.4 0 0 0 .512-.65 3.3 3.3 0 0 1-.249-1.275c0-1.779 1.34-3.16 3.113-3.16s3.112 1.381 3.112 3.16c0 1.777-1.34 3.16-3.112 3.16-.79 0-1.494-.274-2.031-.735q.169-.21.306-.443c.338-.574.53-1.25.53-1.983s-.192-1.41-.53-1.984a2.5 2.5 0 0 0-.512.634c.181.407.281.863.281 1.349s-.101.942-.281 1.35c-.191.434-.994 1.813-2.831 1.813m5.067-7.004c-.982 0-1.862.336-2.534.902a3.9 3.9 0 0 0-2.533-.902c-2.19 0-3.872 1.67-3.872 3.843s1.682 3.843 3.872 3.843a3.9 3.9 0 0 0 2.533-.903 3.9 3.9 0 0 0 2.534.903c2.189 0 3.872-1.67 3.872-3.843S65.08 15.14 62.89 15.14" clip-rule="evenodd"/><path stroke="#fff" stroke-width=".194" d="M57.823 22.144c-1.773 0-3.112-1.383-3.112-3.161s1.339-3.16 3.112-3.16c.789 0 1.493.273 2.03.735l-.01.012a4 4 0 0 0-.33.488 3.9 3.9 0 0 0-.495 1.925c0 .709.18 1.364.497 1.925a2.4 2.4 0 0 0 .512-.65 3.3 3.3 0 0 1-.249-1.275c0-1.779 1.34-3.16 3.113-3.16s3.112 1.381 3.112 3.16c0 1.777-1.34 3.16-3.112 3.16-.79 0-1.494-.274-2.031-.735q.169-.21.306-.443c.338-.574.53-1.25.53-1.983s-.192-1.41-.53-1.984a2.5 2.5 0 0 0-.512.634c.181.407.281.863.281 1.349s-.101.942-.281 1.35c-.191.434-.994 1.813-2.831 1.813Zm5.067-7.004c-.982 0-1.862.336-2.534.902a3.9 3.9 0 0 0-2.533-.902c-2.19 0-3.872 1.67-3.872 3.843s1.682 3.843 3.872 3.843a3.9 3.9 0 0 0 2.533-.903 3.9 3.9 0 0 0 2.534.903c2.189 0 3.872-1.67 3.872-3.843S65.08 15.14 62.89 15.14Z" clip-rule="evenodd"/><path fill="url(#a)" d="M10 36a6 6 0 0 1 6-6h61a6 6 0 0 1 6 6v16H10z"/><path fill="#fff" d="M32.092 37.727V45h-1.537v-5.813h-.043l-1.665 1.044v-1.364l1.8-1.14zm5.71 5.91v-.384q0-.437.184-.803.189-.368.544-.59.358-.222.873-.223.522 0 .878.22.358.22.54.59.183.366.184.806v.383q0 .438-.185.806-.184.367-.543.586-.359.224-.874.224-.522 0-.877-.224a1.45 1.45 0 0 1-.54-.585 1.8 1.8 0 0 1-.184-.807m1.033-.384v.383q0 .252.12.476.126.224.448.224.324 0 .44-.22a1 1 0 0 0 .121-.48v-.383q0-.26-.113-.483-.114-.224-.448-.224-.319 0-.444.224a1 1 0 0 0-.124.483m-4.766-3.779v-.383q0-.44.189-.806.188-.37.543-.59.36-.22.866-.22.526 0 .881.22t.54.59q.185.366.185.806v.383q0 .441-.189.807-.184.365-.543.586-.356.216-.873.216-.52 0-.878-.22a1.5 1.5 0 0 1-.54-.586 1.8 1.8 0 0 1-.18-.803m1.041-.383v.383q0 .26.12.48.126.22.438.22.326 0 .443-.22a1 1 0 0 0 .121-.48v-.383a1.05 1.05 0 0 0-.114-.483q-.113-.224-.45-.224-.317 0-.437.227-.12.228-.121.48M34.538 45l5-7.273h.93l-5 7.273zm16.917-3.636q0 1.189-.451 2.024a3.13 3.13 0 0 1-1.222 1.275 3.45 3.45 0 0 1-1.733.436 3.44 3.44 0 0 1-1.74-.44 3.13 3.13 0 0 1-1.218-1.275q-.447-.834-.447-2.02 0-1.19.447-2.024a3.1 3.1 0 0 1 1.218-1.272 3.44 3.44 0 0 1 1.74-.44q.963 0 1.733.44.775.437 1.222 1.272.45.833.451 2.024m-1.559 0q0-.77-.23-1.3-.228-.529-.643-.803a1.73 1.73 0 0 0-.974-.273 1.73 1.73 0 0 0-.973.273q-.415.274-.646.803-.227.53-.227 1.3t.227 1.3q.232.529.646.802.416.273.973.273.558 0 .974-.273.414-.273.642-.803.231-.529.231-1.3M52.594 45v-7.273h4.815v1.268h-3.277v1.733h2.958v1.268h-2.958V45zm5.85 0v-7.273h4.815v1.268h-3.278v1.733h2.958v1.268h-2.958V45z"/><defs><linearGradient id="a" x1="49.976" x2="49.976" y1="30" y2="59.333" gradientUnits="userSpaceOnUse"><stop stop-color="#388084"/><stop offset="1" stop-color="#398085" stop-opacity="0"/></linearGradient></defs></svg>
